src/components/bit-fill-mode/fill.svg

<?xml version="1.0" encoding="UTF-8"?>
<svg width="20px" height="20px" viewBox="0 0 20 20" version="1.1" xmlns="http://www.w3.org/2000/svg" xmlns:xlink="http://www.w3.org/1999/xlink">
    <!-- Generator: Sketch 49.3 (51167) - http://www.bohemiancoding.com/sketch -->
    <title>fill</title>
    <desc>Created with Sketch.</desc>
    <defs></defs>
    <g id="fill" stroke="none" stroke-width="1" fill="none" fill-rule="evenodd">
        <path d="M10.7000634,5.80137446 L9.29979614,5.80137446 L9.29979614,8.59994895 L7.89980891,8.59994895 L7.89980891,4.39998724 L6.49982167,4.39998724 L6.49982167,5.80137446 L5.09983443,5.80137446 L5.09983443,3 L9.29979614,3 L9.29979614,4.39998724 L10.7011834,4.39998724 L10.7011834,5.80123446 L12.1000506,5.80123446 L12.1000506,7.2012217 L10.7000634,7.2012217 L10.7000634,5.80137446 Z M5.10011443,8.60120894 L5.10011443,7.2012217 L6.50010167,7.2012217 L6.50010167,8.60120894 L5.10011443,8.60120894 Z M16.3000123,16.9997324 L16.3000123,10.0011962 L17.6999996,10.0011962 L17.6999996,16.9997324 L16.3000123,16.9997324 Z M12.1003306,7.20080171 L13.5003179,7.20080171 L13.5003179,8.60078894 L16.3002923,8.60078894 L16.3002923,10.0007762 L14.9003051,10.0007762 L14.9003051,11.3573638 L13.5003179,11.3573638 L13.5003179,12.758751 L12.1003306,12.758751 L12.1003306,14.1587383 L10.7003434,14.1587383 L10.7003434,15.5587255 L9.29895615,15.5587255 L9.29895615,16.9587128 L7.89896891,16.9587128 L7.89896891,15.5587255 L6.49898168,15.5587255 L6.49898168,14.1587383 L5.10039442,14.1587383 L5.10039442,12.758751 L3.70040719,12.758751 L3.70040719,11.3573638 L6.49898168,11.3573638 L6.49898168,11.3713637 L9.29895615,11.3713637 L9.29895615,10.0007762 L12.1003306,10.0007762 L12.1003306,7.20080171 Z M3.69998719,8.60064895 L5.09997443,8.60064895 L5.09997443,10.0006362 L3.69998719,10.0006362 L3.69998719,11.3572238 L2.29999995,11.3572238 L2.29999995,9.95723658 L3.69998719,9.95723658 L3.69998719,8.60064895 Z" id="Combined-Shape" fill="#575E75"></path>
    </g>
</svg>

<svg width="20" height="20" xmlns="http://www.w3.org/2000/svg"><path d="M10.70006 5.80137H9.2998v2.79858h-1.4V4.39999H6.49983v1.40138H5.09983V3H9.2998v1.39999h1.40138v1.40124h1.39887v1.4h-1.39999V5.80136zM5.10011 8.60121V7.20122h1.4v1.39999h-1.4zm11.1999 8.39852V10.0012H17.7v6.99853h-1.39999zM12.10033 7.2008h1.39999V8.6008h2.79997v1.39999h-1.39998v1.35658h-1.4v1.4014h-1.39998v1.39998h-1.39999v1.39999H9.29896v1.39998h-1.4v-1.39998H6.49899v-1.4H5.1004v-1.39998H3.70041v-1.40139h2.79857v.014h2.79998v-1.37058h2.80137V7.2008zM3.7 8.60065h1.39998v1.39999H3.7v1.35658H2.3V9.95724h1.39999v-1.3566z" fill="#575E75" fill-rule="evenodd"/></svg>
